dist/assets/images/placemark.svg

<svg xmlns="http://www.w3.org/2000/svg" width="70" height="96" viewBox="0 0 70 96" fill="none">
  <path d="M70 36.3619C70 54.0207 56.7063 68.6562 40.3261 71.2985C39.5652 71.7238 37.2826 73.9808 35 80C31.1956 71.7238 30.4348 71.7238 29.674 71.2985C13.2937 68.6562 0 54.0207 0 36.3619C0 16.8321 16.0902 1 35 1C53.9098 1 70 16.8321 70 36.3619Z" fill="#FA8FEF"/>
  <path d="M35 45C40.5228 45 45 40.5228 45 35C45 29.4772 40.5228 25 35 25C29.4772 25 25 29.4772 25 35C25 40.5228 29.4772 45 35 45Z" fill="white"/>
  <path d="M35 95C38.3137 95 41 92.3137 41 89C41 85.6863 38.3137 83 35 83C31.6863 83 29 85.6863 29 89C29 92.3137 31.6863 95 35 95Z" fill="white"/>
  <path d="M35 92C36.6569 92 38 90.6569 38 89C38 87.3431 36.6569 86 35 86C33.3431 86 32 87.3431 32 89C32 90.6569 33.3431 92 35 92Z" fill="#FA8FEF"/>
</svg>

<svg xmlns="http://www.w3.org/2000/svg" width="70" height="96" fill="none"><path d="M70 36.362c0 17.659-13.294 32.294-29.674 34.937-.76.425-3.043 2.682-5.326 8.701-3.804-8.276-4.565-8.276-5.326-8.701C13.294 68.656 0 54.02 0 36.362 0 16.832 16.09 1 35 1s35 15.832 35 35.362Z" fill="#FA8FEF"/><path d="M35 45c5.523 0 10-4.477 10-10s-4.477-10-10-10-10 4.477-10 10 4.477 10 10 10Zm0 50a6 6 0 1 0 0-12 6 6 0 0 0 0 12Z" fill="#fff"/><path d="M35 92a3 3 0 1 0 0-6 3 3 0 0 0 0 6Z" fill="#FA8FEF"/></svg>
